X:1
T:Title
%%score { 1 | 2 }
L:1/8
M:2/4
K:G
V:1 treble nm="Grand Piano"
V:2 bass 
V:1
 z2[Q:1/4=88] DD | G>G GG | G<F FG | [FA]>[FA] [FA][FB] |[M:1/4] G2 | GA |[M:2/4] B>B BB | %7
 [GB]<[FA] [FA][GB] | [Ac]>[Ac] [Ac][Fd] |[M:1/4] B2 | Bc |[M:2/4] d>d dd | [DAc][DGB] [CFA][B,G] | %13
 [A,EA]>[A,EA] [A,EA][EB] |[M:1/4] [Ec]2 | [A,FA][DFA] |[M:2/4] [DGB]>[CFA] [B,EG][A,^DF] | %17
 [G,^DF]<[G,E] [G,EG]>E | DD F>F |[M:3/8] [B,G]3 |[M:1/4] G2 |[M:2/4] F>F F[FA] | A G2 B | %23
 [FA]<[FA] [FA]<[Ac] |[M:3/8] [Ac] B2 |[M:1/8] G |[M:2/4] [Ge]>[Ge] [Gc][Ge] | %27
[M:9/16] [Ge][Gd]/-[Gd][DG]/-[DG]/[DGB] | %28
[M:2/4] [CEA][CEA] [A,DF]>[CDF][Q:1/4=87][Q:1/4=85][Q:1/4=84][Q:1/4=83][Q:1/4=82][Q:1/4=80][Q:1/4=79][Q:1/4=78][Q:1/4=76][Q:1/4=75][Q:1/4=74] | %29
[M:3/8] [B,DG]3[Q:1/4=72][Q:1/4=71][Q:1/4=70][Q:1/4=69][Q:1/4=67] |] %30
V:2
 z2 [G,B,][G,B,] | [G,B,D]>[G,B,D] [G,B,D][G,B,D] | [D,B,D]<[D,A,D] [D,A,D][D,B,] | %3
 [D,C]>[D,C] [D,C][D,D] |[M:1/4] [G,B,]2 | [G,B,][K:treble][G,CG] | %6
[M:2/4] [G,DG]>[G,DG] [G,DG][G,DG] | [D,D]<[D,D] [D,D][D,D] | [D,D]>[D,D] [D,D][D,D] | %9
[M:1/4][K:treble] [G,DG]2 | [G,G][G,A,G] |[M:2/4] [G,B,G]>[G,B,G] [G,B,G][G,B,G] | F,G, D,E, | %13
 C,>C, C,[B,,^G,] |[M:1/4] [A,,A,]2 | D,D, |[M:2/4] G,>D, E,B,, | C,<C, C,>[C,G,C] | %18
 [D,G,B,][D,G,B,] [D,A,C]>[D,A,C] |[M:3/8] [G,,G,]3 |[M:1/4] [G,B,D]2 | %21
[M:2/4] [D,A,D]>[D,A,D] [D,A,D][D,C] | [G,CF] [G,B,]2 [G,DG] | [D,D]<[D,D] [D,D]<[D,D] | %24
[M:3/8] [F,D][K:treble] [G,DG]2 |[M:1/8] [G,B,] |[M:2/4][K:bass] [C,C]>[C,C] [E,C][C,C] | %27
[M:9/16] [G,C][G,B,]/-[G,B,]B,,/-B,,/G,, |[M:2/4] C,C, D,>D, |[M:3/8] G,,3 |] %30

